!!!!SEGMENT:30Hayame_c.krn
!!!OTL: 早め
!!!OPR:Eiga Banso Kyokusyu,jidai-geki,zenpen
!!!YOY:1929
!!!ONB:Kenka,Tsuiseki
**kern
*clefG2
*k[]
*C:
*M2/4
8ee-X
=1!|:
8ddL
8ccJ
8aL
8gJ
=2
8aL
8g
8a
8ccJ
=3
8bL
8a
8b
8aJ
=4
8fL
8e
8d
8eJ
=5
8fL
8a
8b
8aJ
=6
8bL
8ddJ
16eeLL
16eeJ
8eeJ
=7
16ddLL
16ddJ
8ddJ
8eeL
16eeL
16eeJJ
=8
8eeL
8eeJ
8ccL
8eeJ
=9
16ccLL
16ff#X
16ff#
16eeJJ
8ccL
8eeJ
=10
8ccL
8b
8a
8ccJ
=11
8bL
8a
8b
8aJ
=12
8fL
8eJ
8dL
8dJ
=13
8eL
8dJ
8e
8ee-X
=:|!
*-
!!!ENC: Yukiko Yoden
!!!END: 2023/06/11
